svgs/light/starship.svg

<svg xmlns="http://www.w3.org/2000/svg" viewBox="0 0 640 512"><!-- Font Awesome Pro 5.15.1 by @fontawesome - https://fontawesome.com License - https://fontawesome.com/license (Commercial License) --><path d="M448,64c-83.91992,0-155.07812,53.92969-181.18945,128.95312L214.916,197.76367,158.959,160h47.44727a48,48,0,0,0,0-96H32A32.03165,32.03165,0,0,0,0,96v32a32.03165,32.03165,0,0,0,32,32h69.76953l62.86328,42.42383-22.22656,2.06055C115.9375,206.9375,96,229.07812,96,256s19.9375,49.0625,46.40625,51.51562l22.22656,2.06055L101.76953,352H32A32.03165,32.03165,0,0,0,0,384v32a32.03165,32.03165,0,0,0,32,32H206.40625a48,48,0,0,0,0-96H158.959l55.957-37.76367,51.89453,4.81055C292.92188,394.07031,364.08008,448,448,448c106.03906,0,192-85.96094,192-192S554.03906,64,448,64ZM32,128V96H206.40625a16,16,0,0,1,0,32ZM206.40625,384a16,16,0,0,1,0,32H32V384Zm52.18945-97.86133-113.252-10.498C135.46875,274.73438,128,266.28125,128,256s7.46875-18.73438,17.34375-19.64062l113.252-10.498A192.3155,192.3155,0,0,0,256,256,192.3155,192.3155,0,0,0,258.5957,286.13867ZM448,416A160,160,0,1,1,608,256,160.00042,160.00042,0,0,1,448,416Zm0-224a64,64,0,1,0,64,64A63.99942,63.99942,0,0,0,448,192Zm0,96a32,32,0,1,1,32-32A32.00033,32.00033,0,0,1,448,288Z"/></svg>

<svg xmlns="http://www.w3.org/2000/svg" viewBox="0 0 640 512"><!-- Font Awesome Pro 6.0.0-alpha2 by @fontawesome - https://fontawesome.com License - https://fontawesome.com/license (Commercial License) --><path d="M448 64C364.125 64 292.875 117.875 266.75 193L214.875 197.75L159 160H206.375C232.875 160 254.375 138.5 254.375 112S232.875 64 206.375 64H32C14.375 64 0 78.375 0 96V128C0 145.625 14.375 160 32 160H101.75L164.625 202.375L142.375 204.5C116 207 96 229.125 96 256S116 305 142.375 307.5L164.625 309.625L101.75 352H32C14.375 352 0 366.375 0 384V416C0 433.625 14.375 448 32 448H206.375C232.875 448 254.375 426.5 254.375 400S232.875 352 206.375 352H159L214.875 314.25L266.75 319C292.875 394.125 364.125 448 448 448C554 448 640 362 640 256C640 150 554 64 448 64ZM32 128V96H206.375C215.25 96 222.375 103.125 222.375 112S215.25 128 206.375 128H32ZM206.375 384C215.25 384 222.375 391.125 222.375 400S215.25 416 206.375 416H32V384H206.375ZM258.625 286.125L145.375 275.625C135.5 274.75 128 266.25 128 256C128 245.75 135.5 237.25 145.375 236.375L258.625 225.875C257 235.875 256.125 245.875 256 256C256.125 266.125 257 276.125 258.625 286.125ZM448 416C359.625 416 288 344.375 288 256S359.625 96 448 96S608 167.625 608 256S536.375 416 448 416ZM448 192C412.625 192 384 220.625 384 256S412.625 320 448 320S512 291.375 512 256S483.375 192 448 192ZM448 288C430.375 288 416 273.625 416 256S430.375 224 448 224S480 238.375 480 256S465.625 288 448 288Z"/></svg>
